X: 1
T: String Quartet in G major opus 9 no 3 mvt 1
C: Franz Joseph Haydn
%%abc-version 2.0
%%abcx-abcm2ps-target-version 5.9.1 (29 Sep 2008)
%%abc-creator hum2abc beta
%%abcx-conversion-date 2021/02/14 14:38:37
%%abc-copyright Copyright (c) 1994, 2000 Center for Computer Assisted Research in the Humanities
%%abc-edited-by Frances Bennion
%%abcx-initial-encoding-date 1997/04/15
%%gracespace 0 6 6
%%humdrum-veritas 417870903
%%humdrum-veritas-data 2047401174
%%linebreak <none>
%%barnumbers 0
L: 1/8
M: 4/4
N: Derived from op09n3-01.krn
Q: "Moderato"
V: 1
V: 2
V: 3
V: 4 clef=alto
V: 5 clef=bass
K: G
[V:1]G4 BA/G/ GG [I:setbarnb2] |
[V:2]z8 |
[V:3]B,B, B,B, B,B, B,B, |
[V:4]G,G, G,G, G,G, G,G, |
[V:5]G,,G, G,G, G,G, G,G, |
[V:1]e^d/e/ ez2 f ge |
[V:2]z8 |
[V:3]CC CC CC CC |
[V:4]G,G, G,G, G,G, G,G, |
[V:5]G,,G, G,G, G,G, G,G, |
[V:1]e/d/^c/d/ dz2 f gB, |
[V:2]z8 |
[V:3]B,B, B,B, B,z G,2- |
[V:4]G,G, G,G, G,z D,2 |
[V:5]G,,G, G,G, G,z B,,2 |
[V:1]B,2 A,E E2 DC |
[V:2]z8 |
[V:3]G,2 >C2 C2 B,A, |
[V:4]E,4 F,4 |
[V:5]C,4 D,4 |
[V:1]C/B,/E/D/ D(3:2:2z4 z/ |
[V:2]z8 |
[V:3]A,/G,/C/B,/ B,G,/G/ G/F/F/E/ E/D/D/C/ |
[V:4]G,8 |
[V:5]G,,2 >E,2 D,C, B,,A,, |
[V:1]G4 BA/G/ GG |
[V:2]z8 |
[V:3]B,/D/B,/D/ B,/D/B,/D/ B,/D/B,/D/ B,/D/B,/D/ |
[V:4]G,/B,/G,/B,/ G,/B,/G,/B,/ G,/B,/G,/B,/ G,/B,/G,/B,/ |
[V:5]G,,2 z2 G,,2 z2 |
[V:1]e^d/e/ ez f/g/f/g/ f/g/z |
[V:2]z8 |
[V:3]C/E/C/E/ C/E/C/E/ Cz2 E |
[V:4]G,/C/G,/C/ G,/C/G,/C/ G,z2 C |
[V:5]G,,2 z2 G,,2 z2 |
[V:1]e/d/^c/d/ c/d/(3:2:2z4 z/ |
[V:2]z8 |
[V:3]Dz2 G,/G/ G/F/F/E/ E/D/D/C/ |
[V:4]B,z2 G, G,4- |
[V:5]G,,2 zE, D,C, B,,A,, |
[V:1]D2 DE DE DF |
[V:2]B,2 B,/G,/C B,/G,/C B,A, |
[V:3]B,2 z4 zc |
[V:4]G,2 z4 zD |
[V:5]G,,2 z4 zD, |
[V:1]GD DE DE DF |
[V:2]G,B, B,/G,/C B,/G,/C B,A, |
[V:3]B2 z4 zc |
[V:4]D2 z4 zD |
[V:5]G,,2 z4 zD, |
[V:1]G4 G=F E^D |
[V:2]G,4 G,4 |
[V:3]B2 G6- |
[V:4]D4 B,B, B,B, |
[V:5]G,,B,, B,,B,, B,,B,, B,,B,, |
[V:1]^D2 (3:2:2E2-E//F/G/ F/GF/ E/|
[V:2]G,4 G,4 |
[V:3]G8- |
[V:4]CC CC CC CC |
[V:5]C,C, C,C, C,C, C,C, |
[V:1]ED2 <D2 G Bd |
[V:2]z8 |
[V:3]G6 D2 |
[V:4]B,B, B,B, B,B, B,B, |
[V:5]B,,B,, B,,B,, B,,B,, B,,B,, |
[V:1]d/c/B/c/ c4 _E2 |
[V:2]z8 |
[V:3]E6 _E2 |
[V:4]A,A, A,A, A,A, _B,B, |
[V:5]A,,A, A,A, A,A, G,G, |
[V:1]DE//F//G//A// B//c//d//e//f//g//a//b// c'z2 c |
[V:2]z8 |
[V:3]DD DD Dz2 D |
[V:4]A,A, A,A, A,z2 A, |
[V:5]F,F, F,F, F,z2 F, |
[V:1]B/G/F/G/ G,(3:2:2z4 z/ |
[V:2]z8 |
[V:3]D2 zG,/C/ C/B,/G,/E/ E/D/G,/F/ |
[V:4]G,2 zG, G,2 zC |
[V:5]G,2 zE, D,C, B,,A,, |
[V:1]b3 c'/^a/ bf/^d/ eF/^D/ |
[V:2]z8 |
[V:3]G2 G2 >A2 B^D/F/ |
[V:4]B,2 E2 >F2 GC |
[V:5]G,,2 z4 zA, |
[V:1]E2 z2 a3 b/^g/ |
[V:2]z8 |
[V:3]EF/^D/ E2 z2 F2- |
[V:4]B,C B,2 z2 D2- |
[V:5]G,A, G,2 z4 |
[V:1]ae/^c/ dE/^C/ D2 z2 |
[V:2]z8 |
[V:3]FG A^C/E/ DE/C/ Dz |
[V:4]DE FA, A,2 A,z |
[V:5]z2 >G,2 F,G, F,z |
[V:1]g4 _B,3 A,/B,/ |
[V:2]z8 |
[V:3]z8 |
[V:4]G,G, G,G, =F,F, F,F, |
[V:5]E,E, E,E, D,D, D,D, |
[V:1]A,2 >_B,2 A,B, A,B, |
[V:2]z8 |
[V:3]A2 >^G2 AG AG |
[V:4]E,E, E,=F, E,F, E,F, |
[V:5]^C,C, C,D, C,D, C,D, |
[V:1]A,2 e'2 >^c'2 ag |
[V:2]z8 |
[V:3]A2 A,4 A,2- |
[V:4]E,2 z2 E4 |
[V:5]^C,2 z2 ^C4 |
[V:1]fd' ^c'b ag fe |
[V:2]z8 |
[V:3]A,z7 |
[V:4]Fz7 |
[V:5]Dz7 |
[V:1]d4 dc B^A |
[V:2]D4 D4 |
[V:3]D8- |
[V:4]A,A, A,A, F,F, F,F, |
[V:5]F,F, F,F, F,F, F,F, |
[V:1]^A2 B2 >>^c2 cB/c/ |
[V:2]D4 D4 |
[V:3]D8- |
[V:4]G,G, G,G, G,G, G,G, |
[V:5]G,G, G,G, G,G, G,G, |
[V:1]d2 (3:2:2d2-d//e/c/ d/B/c/A/ B/|
[V:2]D4 D4 |
[V:3]D8- |
[V:4]F,A, A,A, A,A, F,F, |
[V:5]F,F, F,F, F,F, F,F, |
[V:1]^A2 B2 >>^c2 cB/c/ |
[V:2]D4 D4 |
[V:3]D8- |
[V:4]G,G, G,G, G,G, G,G, |
[V:5]G,G, G,G, G,G, G,G, |
[V:1]d4 ^d4 |
[V:2]D4 ^D4 |
[V:3]D4 C4 |
[V:4]F,A, A,A, A,A, A,A, |
[V:5]F,F, F,F, F,F, F,F, |
[V:1]eG//B//e//g// bG//B//e//g// bG//B//e//g// b^G |
[V:2]Ez7 |
[V:3]B,z Ez Ez2 ^G |
[V:4]B,z B,z B,z2 ^G, |
[V:5]G,z G,z G,z2 ^G, |
[V:1]A4 e4 |
[V:2]z8 |
[V:3]Aa2 g//f//e//d// ^c4 |
[V:4]A,F2 D A,A, A,A, |
[V:5]A,A,, A,,A,, A,,A,, A,,A,, |
[V:1]d(3f'/e'/d'/ (3^c'/b/a/(3g/f/e/ d3 c |
[V:2]z8 |
[V:3]d2 z4 A2 |
[V:4]D2 z4 F2 |
[V:5]D,2 z2 D,4- |
[V:1]Bd ^ce d(3f'/e'/d'/ (3^c'/b/a/(3g/f/e/ |
[V:2]z8 |
[V:3]B2 G2 F2 z2 |
[V:4]G2 E2 F2 z2 |
[V:5]D,4- D,2 z2 |
[V:1]d2 >c2 Bd ^ce |
[V:2]z8 |
[V:3]z2 A2 B2 G2 |
[V:4]z2 F2 G2 E2 |
[V:5]D,8- |
[V:1]d>D d/D/d/D/ dz3 |
[V:2]z8 |
[V:3]F2 z2 F2 z2 |
[V:4]F2 z2 D2 z2 |
[V:5]D,2 z2 D,2 z2 |
[V:1]d4 fe/d/ dd |
[V:2]z8 |
[V:3]FF FF FF FF |
[V:4]DD DD DD DD |
[V:5]D,D DD DD DD |
[V:1]b^a/b/ bz2 ^c' d'b |
[V:2]z8 |
[V:3]GG GG GG GG |
[V:4]DD DD DD DD |
[V:5]D,D DD DD DD |
[V:1]b/a/^g/a/ az2 ^c' d'F |
[V:2]z8 |
[V:3]FF FF Fz D2- |
[V:4]DD DD Dz A,2 |
[V:5]D,D DD Dz F,2 |
[V:1]F2 EB B2 AG |
[V:2]z8 |
[V:3]D2 >G2 G2 FE |
[V:4]B,4 ^C4 |
[V:5]G,4 A,4 |
[V:1]G/F/B/A/ A(3:2:2z4 z/ |
[V:2]z8 |
[V:3]E/D/G/F/ Fz2 D =FA |
[V:4]D2 z2 >D2 =FA |
[V:5]D,2 z2 >D,2 =F,A, |
[V:1]d4 =fe/d/ dd |
[V:2]z8 |
[V:3]D/=F/D/F/ D/F/D/F/ A,/F/A,/F/ A,/F/A,/F/ |
[V:4]DD DD DD DD |
[V:5]DD DD CC CC |
[V:1]d'2 >d2 =fe/d/ dd |
[V:2]z8 |
[V:3]^G,/=F/G,/F/ G,/F/G,/F/ A,/F/A,/F/ A,/F/A,/F/ |
[V:4]DD DD DD DD |
[V:5]_B,B, B,B, A,A, A,A, |
[V:1]d'2 >d2 =fe/d/ dd |
[V:2]z8 |
[V:3]D/=F/D/F/ D/F/D/F/ D/F/D/F/ D/F/D/F/ |
[V:4]B,B, B,B, B,B, B,B, |
[V:5]^G,G, G,G, =G,G, G,G, |
[V:1]d'2 >d2 d'd d'd |
[V:2]z8 |
[V:3]D/F/D/F/ D/F/D/F/ D/^G/D/G/ D/G/D/G/ |
[V:4]B,B, B,B, B,B, B,B, |
[V:5]F,F, F,F, ^E,E, E,E, |
[V:1]d'c' ba ^g=f ed |
[V:2]z8 |
[V:3]D/^G/D/G/ D/G/D/G/ D/G/D/G/ D/G/D/G/ |
[V:4]B,B, B,B, B,B, B,B, |
[V:5]E,E, E,E, E,E, E,E, |
[V:1]c2 z2 >B2 dc/B/ |
[V:2]z8 |
[V:3]AA cB/A/ ^G4 |
[V:4]C4 D4 |
[V:5]A,4 B,4 |
[V:1]ce2 <a2 ^g b2- |
[V:2]z8 |
[V:3]Ac ed/c/ Be d2 |
[V:4]C2 z2 E4- |
[V:5]zA,, C,B,,/A,,/ E,E, ^G,F,/E,/ |
[V:1]ba c'b ag fe |
[V:2]z8 |
[V:3]c2 ed cB AG |
[V:4]E2 A,B,2 <C2 ^C |
[V:5]A,7 ^A, |
[V:1]^d2 b4 a2- |
[V:2]z8 |
[V:3]F2 B2 c4 |
[V:4]B,2 ^D^C/D/ ED/E/ FE/F/ |
[V:5]B,2 B,,6- |
[V:1]a2 g4 f2- |
[V:2]z8 |
[V:3]B4 A4 |
[V:4]^D^C/D/ ED/E/ CB,/C/ DC/D/ |
[V:5]B,,8 |
[V:1]f2 e4 d2- |
[V:2]z8 |
[V:3]G4 F4 |
[V:4]E^D/E/ E2 C2 B,2- |
[V:5]B,,B, CB,/C/ A,^G,/A,/ B,A,/B,/ |
[V:1]d2 c4 B2 |
[V:2]z8 |
[V:3]E4 D4 |
[V:4]B,2 A,4 G,2 |
[V:5]^G,F,/G,/ A,G,/A,/ F,E,/F,/ =G,F,/G,/ |
[V:1]B/A/e/d/ c/B/A/G/ F/E/D/E/ D/C/B,/A,/ |
[V:2]z8 |
[V:3]E4 D>E D/C/B,/A,/ |
[V:4]C2 >^C2 D>E D/=C/B,/A,/ |
[V:5]C,2 >^C,2 D,>E, D,/=C,/B,,/A,,/ |
[V:1]G4 BA/G/ GG |
[V:2]z8 |
[V:3]B,/D/B,/D/ B,/D/B,/D/ B,/D/B,/D/ B,/D/B,/D/ |
[V:4]G,/B,/G,/B,/ G,/B,/G,/B,/ G,/B,/G,/B,/ G,/B,/G,/B,/ |
[V:5]G,,2 z2 G,,2 z2 |
[V:1]e^d/e/ ez f/g/f/g/ f/g/z |
[V:2]z8 |
[V:3]C/E/C/E/ C/E/C/E/ Cz2 E |
[V:4]G,/C/G,/C/ G,/C/G,/C/ G,z2 C |
[V:5]G,,2 z2 G,,2 z2 |
[V:1]e/d/^c/d/ c/d/(3:2:2z4 z/ |
[V:2]z8 |
[V:3]Dz2 G,/G/ G/F/F/E/ E/D/D/C/ |
[V:4]B,z2 G, G,4- |
[V:5]G,,2 zE, D,C, B,,A,, |
[V:1]D2 DE DE DF |
[V:2]B,2 B,/G,/C B,/G,/C B,A, |
[V:3]B,2 z4 zc |
[V:4]G,2 z4 zD |
[V:5]G,,2 z4 zD, |
[V:1]GD DE DE DF |
[V:2]G,B, B,/G,/C B,/G,/C B,A, |
[V:3]B2 z4 zc |
[V:4]D2 z4 zD |
[V:5]G,,2 z4 zD, |
[V:1]G4 G=F E^D |
[V:2]G,4 G,4 |
[V:3]B2 G6- |
[V:4]D4 B,B, B,B, |
[V:5]G,,B,, B,,B,, B,,B,, B,,B,, |
[V:1]^D2 (3:2:2E2-E//F/G/ F/GF/ E/|
[V:2]G,4 G,4 |
[V:3]G8- |
[V:4]CC CC CC CC |
[V:5]C,C, C,C, C,C, C,C, |
[V:1]ED D2 G=F E^D |
[V:2]G,4 G,4 |
[V:3]G8 |
[V:4]B,B, B,B, B,B, B,B, |
[V:5]B,,B,, B,,B,, B,,B,, B,,B,, |
[V:1]E2 >^E2 F3 A/F/ |
[V:2]z8 |
[V:3]G,^G,2 <A,2 ^A, B,2- |
[V:4]CB, CA,2 ^C DB,- |
[V:5]C,2 >^C,2 D,3 ^D, |
[V:1]G2 >^G2 A3 ^A |
[V:2]z8 |
[V:3]B,B,2 <C2 ^C D2- |
[V:4]B,^D EC2 E F=D- |
[V:5]E,2 >E,2 F,3 F, |
[V:1]Bd/B/ ce/c/ dg =f^d |
[V:2]z8 |
[V:3]DD2 D2 D2 G- |
[V:4]DG FE G,4 |
[V:5]G,2 A,2 B,2 B,,2 |
[V:1]e3 f/^d/ eB/^G/ Ab/^g/ |
[V:2]z8 |
[V:3]G2 E2 >=F2 EF |
[V:4]C2 C2 >D2 CD |
[V:5]C,2 C2 >D2 CD |
[V:1]a2 z2 d3 e/^c/ |
[V:2]z8 |
[V:3]EB/^G/ A2 z2 B,2- |
[V:4]C=F E2 z2 G,2- |
[V:5]CD C2 z2 G,2- |
[V:1]dA/F/ Ga/f/ g2 z2 |
[V:2]z8 |
[V:3]B,C DC DA/F/ Gz |
[V:4]G,A, B,A, B,C Dz |
[V:5]G,A, B,A, B,A, B,z |
[V:1]c'4 _E3 D/E/ |
[V:2]z8 |
[V:3]z8 |
[V:4]CC CC _B,B, B,B, |
[V:5]A,A, A,A, G,G, G,G, |
[V:1]D2 >_E2 DE DE |
[V:2]z8 |
[V:3]d2 >^c2 dc dc |
[V:4]A,A, A,_B, A,B, A,B, |
[V:5]F,F, F,G, F,G, F,G, |
[V:1]D2 a2 >f2 dc |
[V:2]z8 |
[V:3]d2 D6- |
[V:4]A,2 z2 A,4 |
[V:5]F,2 z2 F,,4 |
[V:1]Bg fe dc BA |
[V:2]z8 |
[V:3]D2 z6 |
[V:4]B,2 z6 |
[V:5]G,,2 z6 |
[V:1]G4 G=F E^D |
[V:2]G,4 G,4 |
[V:3]G,8- |
[V:4]DD DD B,B, B,B, |
[V:5]B,,B,, B,,B,, B,,B,, B,,B,, |
[V:1]^D2 E7/ F >EF/ |
[V:2]G,4 G,4 |
[V:3]G,8- |
[V:4]CC CC CC CC |
[V:5]C,C, C,C, C,C, C,C, |
[V:1]G2 (3:2:2G2-G//A/=F/ G/E/F/D/ E/|
[V:2]G,4 G,4 |
[V:3]G,8- |
[V:4]B,D DD DD B,B, |
[V:5]B,,B,, B,,B,, B,,B,, B,,B,, |
[V:1]^D2 E7/ F >EF/ |
[V:2]G,4 G,4 |
[V:3]G,8- |
[V:4]CC CC CC CC |
[V:5]C,C, C,C, C,C, C,C, |
[V:1]G4 ^G4 |
[V:2]G,4 ^G,4 |
[V:3]G,4 =F4 |
[V:4]B,D DD DD DD |
[V:5]B,,B,, B,,B,, B,,B,, B,,B,, |
[V:1]AC//E//A//c// eC//E//A//c// eC//E//A//c// e^C |
[V:2]A,z7 |
[V:3]Ez Az Az2 ^C |
[V:4]Ez Ez Ez2 ^C |
[V:5]C,z C,z C,z2 ^C, |
[V:1]D4 A4 |
[V:2]z8 |
[V:3]Dd2 c//B//A//G// F4 |
[V:4]DB2 G DD DD |
[V:5]D,D, D,D, D,D, D,D, |
[V:1]G(3b/a/g/ (3f/e/d/(3c/B/A/ G3 =F |
[V:2]z8 |
[V:3]G2 z4 D2 |
[V:4]G2 z4 B,2 |
[V:5]G,,2 z2 G,,4- |
[V:1]EG FA G(3b/a/g/ (3f/e/d/(3c/B/A/ |
[V:2]z8 |
[V:3]E2 C2 B,2 z2 |
[V:4]C2 A,2 B,2 z2 |
[V:5]G,,4- G,,2 z2 |
[V:1]G2 >=F2 EG ^FA |
[V:2]z8 |
[V:3]z2 D2 E2 C2 |
[V:4]z2 B,2 C2 A,2 |
[V:5]G,,8- |
[V:1]G>G, G/G,/G/G,/ G2 z2 |]
[V:2]z8 |]
[V:3]B,2 z2 B,2 z2 |]
[V:4]B,2 z2 G,2 z2 |]
[V:5]G,,2 z2 G,,2 z2 |]

